X:1
T:Badajoz, 10.10.12.10
T:Badajoz, 10.10.12.10
T:William Howard Doane, 1886
T:Public Domain Courtesy of the Cyber Hymnal™
C:William Howard Doane, 1886
Z:Public Domain
Z:Courtesy of the Cyber Hymnal™
%%score 1 2
L:1/8
Q:1/4=107
M:4/4
K:Ab
V:1 treble 
V:2 bass 
V:1
 [Ec]4 [EA]2 [EG]2 | [EG]2 [DF]2 [CE]4 | [B,E]4 [CE]2 [DE]2 | [CE]6 z2 | [Ec]4 [EA]2 [EG]2 | %5
 [EG]2 [DF]2 [Fd]4 | ([CE]2 [Ec]2) [Ec]2 [DB]2 | [CA]6 z2 | [EB]4 [=DB]2 [EB]2 | [Ec]3 [DB] [CA]4 | %10
 [EA]4 [FA]2 [EA]2 | [Ed]2 [Ec]2 [EB]4 | [Ec]4 [EA]2 [EG]2 | [EG]2 [DF]2 [Fd]4 | %14
 ([CE]2 [Ec]2) [Ec]2 [DB]2 | [CA]6 z2 |] %16
V:2
 [A,,A,]4 [A,,C]2 [C,A,]2 | [D,A,]2 [D,A,]2 [A,,A,]4 | [E,G,]4 [E,A,]2 [E,B,]2 | [A,,A,]6 z2 | %4
 [A,,A,]4 [A,,C]2 [C,A,]2 | [D,A,]2 [D,A,]2 [D,A,]4 | [E,A,]4 [E,G,]2 [E,G,]2 | [A,,A,]6 z2 | %8
 [E,G,]4 [F,A,]2 [E,G,]2 | [E,A,]3 [E,G,] [F,A,]4 | [C,A,]4 [D,A,]2 [D,A,]2 | %11
 [B,,G,]2 [A,,A,]2 [E,G,]4 | [A,,A,]4 [A,,C]2 [C,A,]2 | [D,A,]2 [D,A,]2 [D,A,]4 | %14
 [E,A,]4 [E,G,]2 [E,G,]2 | [A,,A,]6 z2 |] %16

